X:1
T: The Happy Farmer
C: 
R:Jig
Q:180
K:G
M:6/8
L:1/16
D2|G4G2 B2A2G2|d4d2 d4g2|f4e2 d4c2|B2c2A2 G4D2|G4G2 B2A2|G2d4d2 d4g2|f2e2d2 e2d2^c2|d6d4D2|
G4G2 B2A2G2|d4d2 d4g2|f4e2 d4c2|B2c2A2 G4D2|G4G2 B2A2G2|d4d2 d4g2|f2e2d2 e2d2^c2|d6d4d2|
d2B2c2 d2e2d2|d2c2B2 c4c2|c2A2B2 c2d2c2|c2B2A2 B4d2|g4d2 g4d2|g4g2 g2f2e2|d2c2B2 A4G2|G6G4d2|
d2B2c2 d2e2d2|d2c2B2 c4c2|c2A2B2 c2d2c2|c2B2A2 B4d2|g4d2 g4d2|g4g2 g2f2e2|d2c2B2 A4G2|G6G4||
